X:1
T:Emma Hartsell
M:3/4
L:1/8
K:Eb
 EEG| B3 G/2G/2 BB| E3 EA c| A3 G/2G/2 FG| B3 GB B| e3| ccc| F3 GG c|\
 B3 GA F| E3||
